; generated by Slic3r 1.3.0-dev on 2018-05-11 at 15:50:03

; external perimeters extrusion width = 0.55mm (4.37mm^3/s)
; perimeters extrusion width = 0.70mm (11.44mm^3/s)
; infill extrusion width = 0.63mm (13.45mm^3/s)
; solid infill extrusion width = 0.70mm (3.81mm^3/s)
; top infill extrusion width = 0.70mm (2.86mm^3/s)

M107
M104 S200 ; set temperature
G28 ; home all axes
G1 Z5 F5000 ; lift nozzle

; Filament gcode

M109 S200 ; set temperature and wait for it to be reached
G21 ; set units to millimeters
G90 ; use absolute coordinates
M82 ; use absolute distances for extrusion
G92 E0
G1 Z0.350 F7800.000
G1 E-2.00000 F2400.00000
G92 E0
G1 X87.985 Y70.656 F7800.000
G1 E2.00000 F2400.00000
G1 F1800
G1 X89.515 Y68.947 E2.07096
G1 X91.536 Y67.862 E2.14192
G1 X93.611 Y67.529 E2.20695
G1 X107.605 Y67.529 E2.63996
G1 X109.864 Y67.926 E2.71092
G1 X111.852 Y69.070 E2.78188
G1 X113.330 Y70.823 E2.85284
G1 X114.122 Y72.976 E2.92381
G1 X114.133 Y75.269 E2.99477
G1 X113.289 Y77.553 E3.07011
G1 X92.234 Y112.772 E4.33971
G1 X91.636 Y113.692 E4.37368
G1 X91.565 Y113.788 E4.37738
G1 X89.898 Y115.364 E4.44834
G1 X87.794 Y116.277 E4.51931
G1 X85.505 Y116.419 E4.59027
G1 X83.305 Y115.771 E4.66123
G1 X81.458 Y114.412 E4.73219
G1 X79.865 Y111.610 E4.83192
G1 X79.770 Y111.266 E4.84296
G1 X79.637 Y108.294 E4.93502
G1 X87.130 Y72.784 E6.05794
G1 X87.957 Y70.725 E6.12658
G1 E4.12658 F2400.00000
G92 E0
G1 X86.555 Y108.341 F7800.000
G1 E2.00000 F2400.00000
G1 F1800
G1 X86.488 Y108.676 E2.00176
G1 F1800
G1 X86.467 Y108.764 E2.00246
G1 F1800
G1 X86.411 Y109.156 E2.00717
G1 F1800
G1 X86.374 Y109.304 E2.00938
G1 X86.225 Y109.678 E2.01518
G1 E0.01518 F2400.00000
G92 E0
G1 X101.377 Y74.870 F7800.000
G1 E2.00000 F2400.00000
G1 F1800
G1 X100.101 Y74.928 E2.03953
G1 X99.380 Y74.942 E2.06184
G1 X98.733 Y74.853 E2.08203
G1 X98.757 Y74.504 E2.09287
G1 X101.369 Y74.504 E2.17367
G1 X101.375 Y74.795 E2.18268
G1 X100.877 Y74.862 F7800.000
G1 X101.997 Y74.860 F7800.000
G1 F1800
G1 X102.014 Y74.504 E2.19373
G1 X102.603 Y74.504 E2.21194
G1 X102.627 Y74.852 E2.22276
G1 X102.335 Y74.893 E2.23189
G1 X102.071 Y74.867 E2.24009
G1 X102.184 Y74.556 F7800.000
G1 X102.964 Y74.653 F7800.000
G1 F1800
G1 X103.510 Y74.617 E2.26319
G1 X104.278 Y74.613 E2.29559
G1 F1800
G1 X105.102 Y74.566 E2.32806
G1 F1800
G1 X105.506 Y74.520 E2.34222
G1 F1800
G1 X105.869 Y74.473 E2.35334
G1 F1800
G1 X106.191 Y74.424 E2.36163
G1 F1800
G1 X106.513 Y74.374 E2.36834
G1 F1800
G1 X106.730 Y74.359 E2.37220
G1 F1800
G1 X107.447 Y74.264 E2.38277
G1 E0.38277 F2400.00000
G92 E0
G1 X98.396 Y74.654 F7800.000
G1 E2.00000 F2400.00000
G1 F1800
G1 X97.498 Y74.589 E2.03845
G1 F1800
G1 X97.149 Y74.551 E2.05229
G1 F1800
G1 X96.863 Y74.520 E2.06253
G1 F1800
G1 X96.122 Y74.483 E2.08674
G1 F1800
G1 X95.572 Y74.445 E2.10264
G1 F1800
G1 X94.783 Y74.408 E2.12251
G1 F1800
G1 X93.954 Y74.393 E2.14033
G1 Z0.650 F7800.000
G1 E0.14033 F2400.00000
G92 E0
G1 X84.556 Y118.370 F7800.000
G1 E2.00000 F2400.00000
G1 F1800
G1 X84.513 Y118.531 E2.00241
G1 F1800
G1 X84.486 Y118.683 E2.00501
G1 F1800
G1 X84.471 Y118.759 E2.00650
G1 F1800
G1 X84.435 Y118.909 E2.00988
G1 X84.351 Y119.517 E2.02331
G1 X84.313 Y119.631 E2.02592
G1 F1800
G1 X84.293 Y119.870 E2.03048
G1 F1800
G1 X84.283 Y119.989 E2.03240
G1 E0.03240 F2400.00000
G92 E0
G1 X86.620 Y108.999 F7800.000
G1 E2.00000 F2400.00000
G1 F1800
G1 X86.548 Y109.570 E2.01186
G1 X86.492 Y109.780 E2.01634
G1 X86.377 Y110.081 E2.02299

G1 F3600
G1 X86.322 Y110.225 E2.02728
G1 X86.278 Y110.214 E2.02854

G1 F1800
G1 X86.071 Y110.162 E2.03294
G1 X86.129 Y109.716 E2.04222
G1 X86.357 Y108.944 E2.05881
G1 X86.547 Y108.983 E2.06280
G1 X86.480 Y109.479 F7800.000
G1 X86.131 Y110.461 F7800.000
G1 F1800
G1 X85.909 Y111.404 E2.09104
G1 X85.723 Y112.486 E2.12303
G1 X85.564 Y113.228 E2.14512
G1 F1800
G1 X85.506 Y113.502 E2.15261
G1 F1800
G1 X85.476 Y113.645 E2.15618
G1 F1800
G1 X85.446 Y113.703 E2.15762
G1 F1800
G1 X85.423 Y113.746 E2.15852
G1 F1800
G1 X85.370 Y113.865 E2.16062
G1 F1800
G1 X85.324 Y114.061 E2.16307
G1 F1800
G1 X85.254 Y114.238 E2.16479
G1 E0.16479 F2400.00000
G92 E0
G1 X86.540 Y108.701 F7800.000
G1 E2.00000 F2400.00000
G1 F1800
G1 X86.691 Y108.119 E2.01718
G1 F1800
G1 X86.898 Y107.522 E2.03381
G1 X87.082 Y106.825 E2.05280
G1 X87.226 Y106.017 E2.07440
G1 F1800
G1 X87.403 Y105.195 E2.09416
G1 X87.664 Y104.197 E2.11840
G1 X87.829 Y103.414 E2.13721
G1 F1800
G1 X88.066 Y102.523 E2.16126
G1 X88.177 Y101.951 E2.17646
G1 F1800
G1 X88.390 Y101.043 E2.19779
G1 F1800
G1 X88.487 Y100.559 E2.20736
G1 F1800
G1 X88.540 Y100.229 E2.21272
G1 F1800
G1 X88.686 Y99.402 E2.22301
G1 F1800
G1 X88.742 Y99.081 E2.22780
G1 X88.835 Y98.746 E2.23292
G1 X89.003 Y98.275 E2.24026
G1 X89.055 Y97.841 E2.24670
G1 F1800
G1 X89.074 Y97.652 E2.24895
G1 F1800
G1 X89.083 Y97.558 E2.24980
G1 X88.987 Y97.450 E2.25109
G1 E0.25109 F2400.00000
G92 E0
G1 X97.200 Y74.322 F7800.000
G1 E2.00000 F2400.00000
G1 F600
G1 X97.234 Y73.978 E2.00933
G1 X105.397 Y73.978 E2.22955
G1 X105.439 Y74.313 E2.23865
G1 X105.253 Y74.359 E2.24380
G1 X104.195 Y74.424 E2.27240
G1 X103.827 Y74.466 E2.28240
G1 X103.266 Y74.473 E2.29753
G1 X102.832 Y74.508 E2.30927
G1 X102.600 Y74.567 E2.31572
G1 X102.278 Y74.596 E2.32445
G1 X101.704 Y74.528 E2.34004
G1 X100.746 Y74.535 E2.36589
G1 X99.149 Y74.622 E2.40904
G1 X97.998 Y74.481 E2.44031
G1 X97.273 Y74.337 E2.46025
G1 E0.46025 F2400.00000
G92 E0
G1 X93.025 Y73.417 F7800.000
G1 E2.00000 F2400.00000

G1 F3600
G1 X108.247 Y73.417 E2.42282
G1 X107.986 Y73.769 E2.43498
G1 X107.856 Y73.904 E2.44017

G1 F1800
G1 X107.364 Y74.338 E2.45371
G1 X107.235 Y74.427 E2.45693
G1 X107.071 Y74.533 E2.46095
G1 X106.804 Y74.627 E2.46679
G1 X106.330 Y74.667 E2.47658
G1 X105.339 Y74.916 E2.49764
G1 X104.244 Y74.983 E2.52027
G1 X103.862 Y75.026 E2.52819
G1 X103.292 Y75.034 E2.53993
G1 X102.924 Y75.063 E2.54754
G1 X102.695 Y75.122 E2.55241
G1 X102.270 Y75.160 E2.56121
G1 X101.673 Y75.089 E2.57360
G1 X100.763 Y75.096 E2.59235
G1 X99.134 Y75.185 E2.62597
G1 X98.474 Y75.115 E2.63967
G1 X97.904 Y75.034 E2.65152
G1 X97.185 Y74.891 E2.66663
G1 X95.911 Y74.734 E2.69309
G1 X95.695 Y74.741 E2.69754
G1 X94.981 Y74.701 E2.71229
G1 X94.708 Y74.749 E2.71799
G1 X94.379 Y74.757 E2.72477
G1 X94.104 Y74.630 E2.73101
G1 X93.387 Y74.031 E2.75027

G1 F3600
G1 X93.233 Y73.840 E2.75708
G1 X93.058 Y73.485 E2.76809

G1 X93.665 Y73.898 F7800.000
G1 F600
G1 X94.518 Y74.085 E2.79379
G1 X94.984 Y74.059 E2.80753
G1 X95.970 Y74.077 E2.83654
G1 F600
G1 X96.936 Y74.136 E2.86785
G1 E0.86785 F2400.00000
G92 E0
G1 X105.696 Y74.111 F7800.000
G1 E2.00000 F2400.00000
G1 F600
G1 X106.199 Y74.049 E2.01444
G1 F600
G1 X106.675 Y74.027 E2.02644
G1 X107.447 Y73.894 E2.04617
G1 Z0.950 F7800.000
G1 E0.04617 F2400.00000
G92 E0
G1 X82.221 Y136.804 F7800.000
G1 E2.00000 F2400.00000
G1 F1800
G1 X82.222 Y136.975 E2.00097
G1 X82.185 Y137.101 E2.00172
G1 F1800
G1 X82.130 Y137.190 E2.00256
G1 F1800
G1 X82.097 Y137.337 E2.00420
G1 F1800
G1 X81.792 Y138.127 E2.01596
G1 X82.263 Y136.446 F7800.000
G1 F1800
G1 X82.263 Y136.119 E2.02115
G1 F1800
G1 X82.253 Y135.894 E2.02529
G1 X82.274 Y135.646 E2.02988
G1 F1800
G1 X82.291 Y135.456 E2.03299
G1 F1800
G1 X82.372 Y135.020 E2.03920
G1 F1800
G1 X82.418 Y134.781 E2.04181
G1 X82.615 Y134.243 E2.04796
G1 E0.04796 F2400.00000
G92 E0
G1 X82.917 Y129.204 F7800.000
G1 E2.00000 F2400.00000
G1 F1800
G1 X82.736 Y129.414 E2.00166
G1 X82.695 Y129.606 E2.00284
G1 E0.00284 F2400.00000
G92 E0
G1 X83.460 Y126.045 F7800.000
G1 E2.00000 F2400.00000
G1 F1800
G1 X83.488 Y125.767 E2.00270
G1 X83.454 Y125.538 E2.00494
G1 F1800
G1 X83.446 Y125.426 E2.00563
G1 E0.00563 F2400.00000
G92 E0
G1 X84.308 Y120.575 F7800.000
G1 E2.00000 F2400.00000

G1 F3600
G1 X84.241 Y120.921 E2.00979
G1 X83.994 Y120.897 E2.01670
G1 X83.985 Y120.747 E2.02089
G1 X84.026 Y120.527 E2.02708
G1 X84.234 Y120.563 E2.03295

G1 X84.076 Y121.181 F7800.000
G1 F1800
G1 X84.026 Y121.601 E2.04383
G1 X83.944 Y121.998 E2.05427
G1 F1800
G1 X83.917 Y122.076 E2.05616
G1 F1800
G1 X83.898 Y122.176 E2.05822
G1 F1800
G1 X83.762 Y123.227 E2.07748
G1 E0.07748 F2400.00000
G92 E0
G1 X84.381 Y120.087 F7800.000
G1 E2.00000 F2400.00000
G1 F1800
G1 X84.122 Y120.016 E2.00554
G1 X84.156 Y119.833 E2.00940
G1 X84.142 Y119.496 E2.01634
G1 X84.160 Y119.184 E2.02278
G1 X84.347 Y118.226 E2.04290
G1 X84.506 Y117.556 E2.05710

G1 F3600
G1 X84.857 Y115.641 E2.11116
G1 X85.011 Y114.979 E2.13006
G1 X85.087 Y114.434 E2.14534

G1 F1800
G1 X85.128 Y114.141 E2.15142
G1 X85.251 Y113.628 E2.16231
G1 X85.328 Y113.148 E2.17232
G1 X85.478 Y112.544 E2.18515
G1 X85.735 Y111.200 E2.21335
G1 X85.950 Y110.337 E2.23169
G1 X86.010 Y109.827 E2.24226
G1 X86.208 Y109.176 E2.25629
G1 X86.618 Y107.657 E2.28872
G1 X86.729 Y107.329 E2.29587
G1 X87.015 Y106.131 E2.32124
G1 X87.192 Y105.280 E2.33915
G1 X87.462 Y104.226 E2.36158
G1 X87.823 Y102.494 E2.39804
G1 X88.271 Y100.763 E2.43490
G1 X88.681 Y98.759 E2.47705
G1 X89.103 Y97.359 E2.50719
G1 X89.353 Y97.375 E2.51236
G1 X89.381 Y97.699 E2.51906
G1 X89.323 Y98.166 E2.52877
G1 X89.224 Y98.592 E2.53777
G1 X88.946 Y99.551 E2.55836
G1 X88.742 Y100.724 E2.58290
G1 X88.562 Y101.545 E2.60020
G1 X88.503 Y102.004 E2.60975
G1 X88.398 Y102.549 E2.62119
G1 X88.159 Y103.358 E2.63858
G1 X87.706 Y105.469 E2.68308
G1 X87.459 Y106.447 E2.70386
G1 X87.153 Y107.812 E2.73270
G1 X87.016 Y108.218 E2.74153
G1 X86.892 Y108.766 E2.75311
G1 X86.811 Y109.031 E2.75883
G1 X86.631 Y110.072 E2.78060
G1 X86.180 Y111.825 E2.81790
G1 X85.839 Y113.454 E2.85221
G1 X85.544 Y114.381 E2.87225

G1 F3600
G1 X85.433 Y114.620 E2.87956
G1 X85.376 Y114.998 E2.89020
G1 X85.343 Y115.447 E2.90269
G1 X85.284 Y115.786 E2.91225
G1 X85.004 Y116.745 E2.94002
G1 X84.866 Y117.354 E2.95736
G1 X84.833 Y117.678 E2.96639

G1 F1800
G1 X84.818 Y118.038 E2.97383
G1 X84.767 Y118.252 E2.97836
G1 X84.657 Y119.173 E2.99747
G1 X84.563 Y119.580 E3.00609
G1 X84.406 Y120.016 E3.01563
G1 X84.193 Y119.894 F7800.000
G1 E1.01563 F2400.00000
G92 E0
G1 X89.365 Y96.711 F7800.000
G1 E2.00000 F2400.00000
G1 F1800
G1 X89.668 Y95.623 E2.03396
G1 X89.768 Y95.101 E2.04993
G1 X89.933 Y94.450 E2.07010
G1 F1800
G1 X90.040 Y93.814 E2.08795
G1 F1800
G1 X90.123 Y93.465 E2.09669
G1 F1800
G1 X90.206 Y93.117 E2.10412
G1 F1800
G1 X90.289 Y92.768 E2.11024
G1 F1800
G1 X90.368 Y92.316 E2.11682
G1 X90.568 Y91.621 E2.12720
G1 X90.737 Y90.960 E2.13697
G1 X90.771 Y90.750 E2.14003
G1 E0.14003 F2400.00000
G92 E0
G1 X86.356 Y109.790 F7800.000
G1 E2.00000 F2400.00000
G1 F1200
G1 X86.304 Y110.061 E2.00032
G1 E0.00032 F2400.00000
G92 E0
G1 X92.055 Y85.115 F7800.000
G1 E2.00000 F2400.00000
G1 F1800
G1 X91.741 Y86.088 E2.00476
G1 X91.745 Y86.197 E2.00527
G1 F1800
G1 X91.761 Y86.246 E2.00567
G1 X91.696 Y86.509 E2.00772
G1 F1800
G1 X91.514 Y87.140 E2.01493
G1 X91.484 Y87.385 E2.01764
G1 X91.410 Y87.613 E2.02028
G1 F1800
G1 X91.345 Y87.810 E2.02196
G1 X91.621 Y86.244 F7800.000
G1 F1800
G1 X91.861 Y85.766 E2.02937
G1 F1800
G1 X91.913 Y85.616 E2.03207
G1 X91.934 Y85.290 E2.03760
G1 F1800
G1 X91.923 Y85.205 E2.03874
G1 F1800
G1 X91.925 Y85.105 E2.03977
G1 X91.969 Y84.971 E2.04122
G1 X92.016 Y84.521 E2.04584
G1 F1800
G1 X92.229 Y83.493 E2.05939
G1 X92.422 Y82.895 E2.06750
G1 F1800
G1 X92.479 Y82.535 E2.07109
G1 F1800
G1 X92.514 Y82.422 E2.07250
G1 F1800
G1 X92.553 Y82.134 E2.07694
G1 F1800
G1 X92.592 Y81.845 E2.08239
G1 F1800
G1 X92.783 Y80.934 E2.10277
G1 X93.066 Y80.150 F7800.000
G1 F1800
G1 X93.148 Y79.376 E2.11888
G1 X93.242 Y78.771 E2.13154
G1 F1800
G1 X93.280 Y78.566 E2.13535
G1 X93.467 Y77.956 E2.14702
G1 F1800
G1 X93.493 Y77.780 E2.14985
G1 E0.14985 F2400.00000
G92 E0
G1 X93.920 Y74.770 F7800.000
G1 E2.00000 F2400.00000
G1 F900
G1 X93.832 Y74.407 E2.01009
G1 X93.721 Y74.290 E2.01442
G1 X93.675 Y74.003 E2.02226
G1 X93.513 Y73.606 E2.03383
G1 X107.634 Y73.606 E2.41476
G1 X107.314 Y73.945 E2.42733
G1 X107.083 Y74.150 E2.43567
G1 X106.742 Y74.376 E2.44669
G1 X106.204 Y74.388 E2.46121
G1 X105.617 Y74.537 E2.47755
G1 X105.302 Y74.580 E2.48611
G1 X104.335 Y74.593 E2.51222
G1 X103.733 Y74.665 E2.52857
G1 X102.370 Y74.760 E2.56541
G1 X102.136 Y74.760 E2.57174
G1 X101.407 Y74.693 E2.59147
G1 X99.820 Y74.718 E2.63431
G1 X99.054 Y74.768 E2.65500
G1 X98.231 Y74.689 E2.67732
G1 X97.069 Y74.484 E2.70914
G1 X96.248 Y74.388 E2.73144
G1 X95.594 Y74.410 E2.74908
G1 X94.950 Y74.374 E2.76650
G1 X94.465 Y74.472 E2.77984
G1 X93.986 Y74.734 E2.79458
G1 E0.79458 F2400.00000
G92 E0
G1 X92.778 Y73.046 F7800.000
G1 E2.00000 F2400.00000
G1 F1800
G1 X108.720 Y73.046 E2.32857
G1 X108.565 Y73.321 E2.33508
G1 X108.304 Y73.714 E2.34480
G1 X107.704 Y74.348 E2.36278
G1 X107.425 Y74.595 E2.37047
G1 X107.028 Y74.859 E2.38031
G1 X106.846 Y74.934 E2.38436
G1 X106.280 Y74.947 E2.39602
G1 X105.724 Y75.088 E2.40784
G1 X105.344 Y75.140 E2.41574
G1 X104.372 Y75.153 E2.43579
G1 X103.786 Y75.223 E2.44795
G1 X102.390 Y75.320 E2.47678
G1 X102.110 Y75.320 E2.48255
G1 X101.386 Y75.254 E2.49754
G1 X99.842 Y75.279 E2.52937
G1 X99.046 Y75.330 E2.54582
G1 X98.155 Y75.245 E2.56426
G1 X96.988 Y75.039 E2.58869
G1 X96.225 Y74.950 E2.60452
G1 X95.588 Y74.971 E2.61765
G1 X94.990 Y74.938 E2.62999
G1 X94.660 Y75.004 E2.63694
G1 X94.204 Y75.254 E2.64765

G1 F3600
G1 X93.773 Y75.490 E2.66131
G1 X93.384 Y74.937 E2.68012
G1 X93.322 Y74.684 E2.68734
G1 X93.230 Y74.580 E2.69119

G1 F1800
G1 X93.169 Y74.383 E2.69544
G1 X93.132 Y74.156 E2.70019
G1 X93.012 Y73.863 E2.70672
G1 X92.797 Y73.118 E2.72270
G1 X93.232 Y73.254 F7800.000
G1 X94.013 Y74.104 F7800.000
G1 F1200
G1 X94.330 Y74.048 E2.72539
G1 F1200
G1 X94.719 Y74.009 E2.72779
G1 F1200
G1 X94.931 Y73.989 E2.72840
G1 F1200
G1 X95.599 Y74.008 E2.73214
G1 X96.259 Y73.997 E2.73583
G1 X96.699 Y74.022 E2.73831
G1 F1200
G1 X97.370 Y74.068 E2.74469
G1 F1200
G1 X97.837 Y74.109 E2.75076
G1 F1200
G1 X98.304 Y74.150 E2.75846
G1 F1200
G1 X99.063 Y74.186 E2.77330
G1 X99.791 Y74.163 E2.78751
G1 F1200
G1 X101.416 Y74.149 E2.81557
G1 X102.350 Y74.183 E2.83172
G1 X103.683 Y74.137 E2.85476
G1 F1200
G1 X104.293 Y74.100 E2.86317
G1 F1200
G1 X105.266 Y74.093 E2.87301
G1 X105.681 Y74.056 E2.87723
G1 F1200
G1 X105.989 Y74.018 E2.87936
G1 F1200
G1 X106.159 Y73.998 E2.87996
G1 X106.747 Y73.991 E2.88203
M106 S239.7
G1 Z1.250 F7800.000
G1 X98.352 Y73.870 F7800.000
G1 F900
G1 X100.869 Y73.870 E2.94993
G1 X100.875 Y74.245 E2.96005
G1 X100.420 Y74.260 E2.97234
G1 X99.588 Y74.252 E2.99479
G1 X98.929 Y74.296 E3.01259
G1 X98.332 Y74.231 E3.02879
G1 X98.348 Y73.945 E3.03651
G1 X101.210 Y73.870 F7800.000
G1 F900
G1 X102.941 Y73.870 E3.08322
G1 X102.957 Y74.236 E3.09309
G1 X101.904 Y74.284 E3.12152
G1 X101.198 Y74.240 E3.14059
G1 X101.208 Y73.945 E3.14854
G1 X108.302 Y73.234 F7800.000
G1 F900
G1 X107.616 Y73.863 E3.17364
G1 X107.311 Y74.255 E3.18704
G1 X107.194 Y74.359 E3.19127
G1 X106.727 Y74.681 E3.20656
G1 X106.221 Y74.683 E3.22022
G1 X105.404 Y74.808 E3.24251
G1 X104.212 Y74.798 E3.27468
G1 X103.739 Y74.852 E3.28751
G1 X103.166 Y74.856 E3.30298
G1 X102.684 Y74.896 E3.31603
G1 X101.894 Y74.920 E3.33736
G1 X101.132 Y74.872 E3.35794
G1 X100.427 Y74.896 E3.37697
G1 X99.606 Y74.887 E3.39913
G1 X98.916 Y74.934 E3.41777
G1 X98.413 Y74.879 E3.43143
G1 X97.834 Y74.789 E3.44722
G1 X97.003 Y74.602 E3.47020
G1 X96.666 Y74.570 E3.47934
G1 X96.378 Y74.549 E3.48713
G1 X95.589 Y74.630 E3.50852
G1 X94.937 Y74.607 E3.52614
G1 X94.626 Y74.691 E3.53481
G1 X93.933 Y74.976 E3.55503
G1 X93.547 Y75.242 E3.56767
G1 X93.477 Y74.162 E3.59686
G1 X93.262 Y73.234 E3.62254
G1 X108.227 Y73.234 E4.02625
G1 X109.093 Y72.674 F7800.000
G1 F1800
G1 X108.760 Y73.370 E4.04215
G1 X108.409 Y73.897 E4.05520
G1 X108.029 Y74.244 E4.06580
G1 X107.723 Y74.639 E4.07611
G1 X107.541 Y74.801 E4.08113
G1 X106.994 Y75.178 E4.09482
G1 X106.793 Y75.241 E4.09916
G1 X106.265 Y75.244 E4.11004
G1 X105.445 Y75.369 E4.12715
G1 X104.242 Y75.358 E4.15194
G1 X103.774 Y75.413 E4.16165
G1 X103.191 Y75.417 E4.17367
G1 X102.716 Y75.456 E4.18349
G1 X101.884 Y75.481 E4.20063
G1 X101.124 Y75.433 E4.21633
G1 X100.434 Y75.457 E4.23057
G1 X99.621 Y75.448 E4.24731
G1 X98.905 Y75.496 E4.26212
G1 X98.339 Y75.435 E4.27384
G1 X97.730 Y75.340 E4.28655
G1 X96.915 Y75.157 E4.30375
G1 X96.619 Y75.129 E4.30989
